Simply black circles/scalable/panel/nm-no-connection.svg

<?xml version="1.0" encoding="UTF-8" standalone="no"?>
<!-- Created with Inkscape (http://www.inkscape.org/) -->

<svg
   xmlns:dc="http://purl.org/dc/elements/1.1/"
   xmlns:cc="http://creativecommons.org/ns#"
   xmlns:rdf="http://www.w3.org/1999/02/22-rdf-syntax-ns#"
   xmlns:svg="http://www.w3.org/2000/svg"
   xmlns="http://www.w3.org/2000/svg"
   xmlns:sodipodi="http://sodipodi.sourceforge.net/DTD/sodipodi-0.dtd"
   xmlns:inkscape="http://www.inkscape.org/namespaces/inkscape"
   version="1.1"
   width="24"
   height="24"
   id="svg2906"
   sodipodi:docname="nm-no-connection.svg"
   inkscape:version="0.92.3 (2405546, 2018-03-11)">
  <sodipodi:namedview
     pagecolor="#ffffff"
     bordercolor="#666666"
     borderopacity="1"
     objecttolerance="10"
     gridtolerance="10"
     guidetolerance="10"
     inkscape:pageopacity="0"
     inkscape:pageshadow="2"
     inkscape:window-width="1366"
     inkscape:window-height="684"
     id="namedview18"
     showgrid="false"
     inkscape:zoom="22.166667"
     inkscape:cx="-5.1428572"
     inkscape:cy="11.639098"
     inkscape:window-x="0"
     inkscape:window-y="28"
     inkscape:window-maximized="1"
     inkscape:current-layer="svg2906"
     showguides="true"
     inkscape:guide-bbox="true"
     inkscape:snap-global="false" />
  <metadata
     id="metadata3009">
    <rdf:RDF>
      <cc:Work
         rdf:about="">
        <dc:format>image/svg+xml</dc:format>
        <dc:type
           rdf:resource="http://purl.org/dc/dcmitype/StillImage" />
        <dc:title></dc:title>
      </cc:Work>
    </rdf:RDF>
  </metadata>
  <defs
     id="defs2908">
    <clipPath
       id="clipPath2915">
      <rect
         width="4.0000005"
         height="15.000033"
         x="-202.00041"
         y="21"
         transform="matrix(0,-1,1,0,0,0)"
         id="rect2917"
         style="color:#000000;fill:#000000;fill-opacity:1;stroke:none;stroke-width:2;marker:none;visibility:visible;display:inline;overflow:visible;enable-background:accumulate" />
    </clipPath>
    <clipPath
       id="clipPath2854">
      <rect
         width="1.1249844"
         height="4.1250067"
         x="27.375002"
         y="221.875"
         id="rect2856"
         style="color:#000000;fill:#000000;fill-opacity:1;stroke:none;stroke-width:2;marker:none;visibility:visible;display:inline;overflow:visible;enable-background:accumulate" />
    </clipPath>
    <clipPath
       id="clipPath2920">
      <path
         d="m 27.545458,222.48863 0,-0.57954 1.738637,0 0,4.05682 -1.738637,0 0,-0.57955 -0.579545,0 0,-2.89773 0.579545,0 z"
         id="path2922"
         style="color:#000000;fill:#000000;fill-opacity:1;fill-rule:nonzero;stroke:none;stroke-width:2;marker:none;visibility:visible;display:inline;overflow:visible;enable-background:accumulate" />
    </clipPath>
    <clipPath
       clipPathUnits="userSpaceOnUse"
       id="clipPath851">
      <ellipse
         style="opacity:1;fill:#cccccc;fill-opacity:1;fill-rule:nonzero;stroke:none;stroke-width:0.37880188;stroke-linecap:round;stroke-linejoin:round;stroke-miterlimit:4;stroke-dasharray:none;stroke-opacity:1;paint-order:normal"
         id="ellipse853"
         cx="7.9909444"
         cy="40.182869"
         rx="7.5484991"
         ry="7.490562" />
    </clipPath>
    <clipPath
       clipPathUnits="userSpaceOnUse"
       id="clipPath835">
      <ellipse
         style="opacity:1;fill:#cccccc;fill-opacity:1;fill-rule:nonzero;stroke:none;stroke-width:0.29710582;stroke-linecap:round;stroke-linejoin:round;stroke-miterlimit:4;stroke-dasharray:none;stroke-opacity:1;paint-order:normal"
         id="ellipse837"
         cx="23.62096"
         cy="24.499601"
         rx="21.006697"
         ry="21.050003" />
    </clipPath>
    <clipPath
       clipPathUnits="userSpaceOnUse"
       id="clipPath831">
      <ellipse
         style="opacity:1;fill:#cccccc;fill-opacity:1;fill-rule:nonzero;stroke:none;stroke-width:0.29710582;stroke-linecap:round;stroke-linejoin:round;stroke-miterlimit:4;stroke-dasharray:none;stroke-opacity:1;paint-order:normal"
         id="ellipse833"
         cx="23.62096"
         cy="24.499601"
         rx="21.006697"
         ry="21.050003" />
    </clipPath>
    <clipPath
       clipPathUnits="userSpaceOnUse"
       id="clipPath827">
      <ellipse
         style="opacity:1;fill:#cccccc;fill-opacity:1;fill-rule:nonzero;stroke:none;stroke-width:0.29710582;stroke-linecap:round;stroke-linejoin:round;stroke-miterlimit:4;stroke-dasharray:none;stroke-opacity:1;paint-order:normal"
         id="ellipse829"
         cx="23.62096"
         cy="24.499601"
         rx="21.006697"
         ry="21.050003" />
    </clipPath>
  </defs>
  <path
     style="opacity:1;fill:#216778;fill-opacity:1;stroke:none;stroke-width:0.60179442;stroke-miterlimit:4;stroke-dasharray:none;stroke-opacity:1"
     d="M 18.724521,4.0167733 16.463533,6.2777604 A 4.8053061,4.8053061 0 0 0 13.789602,5.4597227 4.8053061,4.8053061 0 0 0 10.37771,6.888541 l 6.790812,6.792382 A 4.8053061,4.8053061 0 0 0 18.59577,10.264321 4.8053061,4.8053061 0 0 0 17.834257,7.6767463 L 20.109375,5.4016279 Z M 9.9820366,8.1870385 7.8796326,10.289443 8.9049274,11.314738 11.007331,9.2123334 Z M 11.58985,9.7948516 9.4874458,11.897255 10.512741,12.92255 12.615145,10.820147 Z M 6.7255871,10.466868 a 4.8053061,4.8053061 0 0 0 -1.3927053,3.375779 4.8053061,4.8053061 0 0 0 0.8180378,2.677072 l -2.4399821,2.439982 1.3832845,1.384855 2.4541132,-2.454115 a 4.8053061,4.8053061 0 0 0 2.5891438,0.758373 4.8053061,4.8053061 0 0 0 3.37892,-1.389565 z m 6.4720759,0.935797 -2.102405,2.102404 1.025295,1.025295 2.102404,-2.102405 z m 1.607814,1.607814 -2.102405,2.102402 1.025295,1.025296 2.102404,-2.102404 z"
     id="path837"
     inkscape:connector-curvature="0" />
</svg>

<svg xmlns="http://www.w3.org/2000/svg" width="24" height="24"><path d="M18.725 4.017l-2.261 2.26a4.805 4.805 0 0 0-2.674-.817 4.805 4.805 0 0 0-3.412 1.429l6.79 6.792a4.805 4.805 0 0 0 1.428-3.417 4.805 4.805 0 0 0-.762-2.587l2.275-2.275zm-8.743 4.17L7.88 10.289l1.025 1.026 2.102-2.103zm1.608 1.608l-2.103 2.102 1.026 1.026 2.102-2.103zm-4.864.672a4.805 4.805 0 0 0-1.393 3.376 4.805 4.805 0 0 0 .818 2.677l-2.44 2.44 1.383 1.385 2.454-2.455a4.805 4.805 0 0 0 2.59.759 4.805 4.805 0 0 0 3.378-1.39zm6.472.936l-2.103 2.102 1.026 1.025 2.102-2.102zm1.607 1.607l-2.102 2.103 1.025 1.025 2.103-2.102z" fill="#216778"/></svg>
